build/img/sprite/diploma.svg

<svg id="Layer_1" height="512" viewBox="0 0 24 24" width="512" xmlns="http://www.w3.org/2000/svg" data-name="Layer 1"><path d="m11 12a1 1 0 0 1 0 2h-3a1 1 0 0 1 0-2zm6-3a1 1 0 0 0 -1-1h-8a1 1 0 0 0 0 2h8a1 1 0 0 0 1-1zm-9-3h8a1 1 0 0 0 0-2h-8a1 1 0 0 0 0 2zm12 13.444v3.833a.721.721 0 0 1 -1.231.51l-.769-.768-.769.768a.721.721 0 0 1 -1.231-.51v-3.833a3.987 3.987 0 0 1 2-7.444 3.939 3.939 0 0 1 1 .142v-7.142a3 3 0 0 0 -3-3h-8a3 3 0 0 0 -3 3v12a3 3 0 0 0 3 3h5a1 1 0 0 1 0 2h-5a5.006 5.006 0 0 1 -5-5v-12a5.006 5.006 0 0 1 5-5h8a5.006 5.006 0 0 1 5 5v8.382a3.95 3.95 0 0 1 -1 6.062zm0-3.444a2 2 0 1 0 -2 2 2 2 0 0 0 2-2z"/></svg>

<svg height="512" viewBox="0 0 24 24" width="512" xmlns="http://www.w3.org/2000/svg" data-name="Layer 1"><path d="M11 12a1 1 0 0 1 0 2H8a1 1 0 0 1 0-2zm6-3a1 1 0 0 0-1-1H8a1 1 0 0 0 0 2h8a1 1 0 0 0 1-1zM8 6h8a1 1 0 0 0 0-2H8a1 1 0 0 0 0 2zm12 13.444v3.833a.721.721 0 0 1-1.231.51L18 23.019l-.769.768a.721.721 0 0 1-1.231-.51v-3.833A3.987 3.987 0 0 1 18 12a3.939 3.939 0 0 1 1 .142V5a3 3 0 0 0-3-3H8a3 3 0 0 0-3 3v12a3 3 0 0 0 3 3h5a1 1 0 0 1 0 2H8a5.006 5.006 0 0 1-5-5V5a5.006 5.006 0 0 1 5-5h8a5.006 5.006 0 0 1 5 5v8.382a3.95 3.95 0 0 1-1 6.062zM20 16a2 2 0 1 0-2 2 2 2 0 0 0 2-2z"/></svg>
